round/svg/sd_storage.svg

<svg xmlns="http://www.w3.org/2000/svg" width="24" height="24"><path fill="none" d="M0 0h24v24H0V0z"/><g fill="currentColor"><path d="M18 2h-7.17c-.53 0-1.04.21-1.42.59L4.6 7.42c-.37.37-.6.88-.6 1.4V20c0 1.1.9 2 2 2h12c1.1 0 2-.9 2-2V4c0-1.1-.9-2-2-2zm-7 6c-.55 0-1-.45-1-1V5c0-.55.45-1 1-1s1 .45 1 1v2c0 .55-.45 1-1 1zm3 0c-.55 0-1-.45-1-1V5c0-.55.45-1 1-1s1 .45 1 1v2c0 .55-.45 1-1 1zm3 0c-.55 0-1-.45-1-1V5c0-.55.45-1 1-1s1 .45 1 1v2c0 .55-.45 1-1 1z"/></g></svg>

<?xml version="1.0" encoding="utf-8"?>
<!-- Generator: Adobe Illustrator 19.1.0, SVG Export Plug-In . SVG Version: 6.00 Build 0)  -->
<svg version="1.1" xmlns="http://www.w3.org/2000/svg" xmlns:xlink="http://www.w3.org/1999/xlink" x="0px" y="0px" width="24px"
	 height="24px" viewBox="0 0 24 24" enable-background="new 0 0 24 24" xml:space="preserve">
<g id="Bounding_Boxes">
	<g id="ui_x5F_spec_x5F_header_copy_3">
	</g>
	<path fill="none" d="M0,0h24v24H0V0z"/>
</g>
<g id="Rounded" fill="currentColor">
	<g id="ui_x5F_spec_x5F_header_copy_6">
	</g>
	<path d="M18,2h-7.17C10.3,2,9.79,2.21,9.41,2.59L4.6,7.42C4.23,7.79,4,8.3,4,8.82V20c0,1.1,0.9,2,2,2h12c1.1,0,2-0.9,2-2V4
		C20,2.9,19.1,2,18,2z M11,8L11,8c-0.55,0-1-0.45-1-1V5c0-0.55,0.45-1,1-1h0c0.55,0,1,0.45,1,1v2C12,7.55,11.55,8,11,8z M14,8L14,8
		c-0.55,0-1-0.45-1-1V5c0-0.55,0.45-1,1-1h0c0.55,0,1,0.45,1,1v2C15,7.55,14.55,8,14,8z M17,8L17,8c-0.55,0-1-0.45-1-1V5
		c0-0.55,0.45-1,1-1h0c0.55,0,1,0.45,1,1v2C18,7.55,17.55,8,17,8z"/>
</g>
</svg>
